X: 101
T:Sligo Creek [Whelan & Noveck]
M:C|
L:1/8
C:Danny Noveck
S:After John Whelan, with Noveck
R:Reel
K:BMin
f2ef dBBe|(3fgf ef dff^g|(3aba ed cAAF|EFAB c3e|!
(3fgf ef dBBe|(3fgf ef dff^g|(3aba ed cAec|1AB (3cBA B3 e:|2AB (3cBA B3A
|!
|:GB (3B^AB Bcde|(3fgf ec defd|eA (3A^GA cAFA|EFAB (3cdc BA|!
GB (3B^AB Bcde|(3fgf ec defd|ea (3a^ga faec|1AB (3cBA B3A:|2AB (3cBA B3e
|]!
